X:1
T:Title
%%score { ( 1 4 ) | ( 2 3 ) }
L:1/8
Q:1/4=100
M:4/4
K:Ab
V:1 treble nm="Grand Piano"
V:4 treble 
V:2 bass 
V:3 bass 
V:1
 [CE]2 [Ec]B A3 E | z2 F2 z4 | A2 A2 A2 GA | [=DB]2 [DB]2 B4 | E2 cB A3 E | z2 F2 z4 | %6
w: Antonius~Darms * * * *||||||
 [Ec]2 [Ae]2 [Fe]3 [Fd] | z2 B2 z4 | E2 AB c4 | F2 Bc d4 | [Gd]3 [CAc] [DGB]2 G-[Gd] | e2 c2 A4 | %12
w: ||||||
 E2 AB c4 | F2 Bc d4 | [Gd]3 [Gd] [CAc]2 [=DAB]2 | [GB]4 z4 |] %16
w: ||||
V:2
 A,2 z D [A,CE]3 [C,A,] | z2 D2 z4 | [A,CE]2 [A,CE]2 [F,B,=D]2 [F,B,D]2 | %3
 [B,,B,]2 [B,,A,]2 [E,G,E]4 | z2 .E2 z4 | z2 D2 z4 | [A,,A,]2 [C,A,]2 [D,A,]3 [D,A,] | %7
 [E,A,E]2 .[E,G,E]2 [A,CE]4 | E,2 A,B, C4 | F,2 B,C D4 | [E,B,]3 E, E,2 z[K:treble] D | %11
 [A,A]2- [A,EA]2[K:bass] [A,CE]4 | E,2 A,B, C4 | F,2 B,C D4 | [E,B,]3 [E,B,] E,2 E,2 | z2 D2 A,4 |] %16
V:3
 z2 A,2 z4 | [D,A,D]2 [F,A,]G, [A,D]2 [A,C]2 | x8 | x8 | [A,C]2 A,-[A,D] [A,CE]3 [C,A,] | %5
 [D,A,D]2 [F,A,]G, [A,D]2 [A,C]2 | x8 | x8 | x8 | x8 | z4 z2 E,2[K:treble] | C2 z2[K:bass] z4 | %12
 x8 | x8 | x8 | E,4 z4 |] %16
V:4
 x8 | F2 z B, F2 E2 | x8 | x8 | x8 | F2 z B, F2 E2 | x8 | c2 z D A4 | x8 | x8 | z4 z2 .[Ec]2 | x8 | %12
 x8 | x8 | x8 | E2 z2 [CEA]4 |] %16

